X: 704
T: Aggie's
R: mazurka
M: 3/4
K: Dmajor
|:FA|d2 dc de|f2 dA FG|A2 AF AB|BA GF E2|
e2 e^d ef|gf ed dc|c2 B2 G2|B2 AG FA|
d2 dc de|f2 dA FG|A2 AF AB|BA GF E2|
e2 e^d ef|gf ed dc|A2 B2 c2|d4:|
|:fg|f2 d2 fg|f2 d2 fg|a2 af gf|e4 ef|
e2 c2 ef|e2 A2 ef|g3 e fe|d4:|

